images/50860666.svg

<?xml version="1.0" encoding="UTF-8"?>
<svg xmlns="http://www.w3.org/2000/svg" xmlns:xlink="http://www.w3.org/1999/xlink" width="300pt" height="300pt" viewBox="0 0 300 300" version="1.1">
<defs>
<g>
<symbol overflow="visible" id="glyph0-0">
<path style="stroke:none;" d="M 0.453125 1.59375 L 0.453125 -6.34375 L 4.953125 -6.34375 L 4.953125 1.59375 Z M 0.953125 1.09375 L 4.453125 1.09375 L 4.453125 -5.84375 L 0.953125 -5.84375 Z M 0.953125 1.09375 "/>
</symbol>
<symbol overflow="visible" id="glyph0-1">
<path style="stroke:none;" d="M 0.890625 -6.5625 L 2.078125 -6.5625 L 4.984375 -1.078125 L 4.984375 -6.5625 L 5.84375 -6.5625 L 5.84375 0 L 4.65625 0 L 1.75 -5.484375 L 1.75 0 L 0.890625 0 Z M 0.890625 -6.5625 "/>
</symbol>
<symbol overflow="visible" id="glyph0-2">
<path style="stroke:none;" d="M 0.890625 -6.5625 L 1.765625 -6.5625 L 1.765625 -3.875 L 5 -3.875 L 5 -6.5625 L 5.890625 -6.5625 L 5.890625 0 L 5 0 L 5 -3.125 L 1.765625 -3.125 L 1.765625 0 L 0.890625 0 Z M 0.890625 -6.5625 "/>
</symbol>
</g>
</defs>
<g id="surface22849">
<rect x="0" y="0" width="300" height="300" style="fill:rgb(100%,100%,100%);fill-opacity:1;stroke:none;"/>
<path style="fill:none;stroke-width:1.2;stroke-linecap:butt;stroke-linejoin:miter;stroke:rgb(0%,0%,100%);stroke-opacity:1;stroke-miterlimit:10;" d="M 97.703125 162.679688 L 110.121094 160.273438 "/>
<path style="fill:none;stroke-width:1.2;stroke-linecap:butt;stroke-linejoin:miter;stroke:rgb(0%,0%,0%);stroke-opacity:1;stroke-miterlimit:10;" d="M 110.121094 160.273438 L 122.535156 157.867188 "/>
<path style="fill:none;stroke-width:1.2;stroke-linecap:butt;stroke-linejoin:miter;stroke:rgb(0%,0%,0%);stroke-opacity:1;stroke-miterlimit:10;" d="M 85.453125 140.550781 L 91.578125 151.613281 "/>
<path style="fill:none;stroke-width:1.2;stroke-linecap:butt;stroke-linejoin:miter;stroke:rgb(0%,0%,100%);stroke-opacity:1;stroke-miterlimit:10;" d="M 91.578125 151.613281 L 97.703125 162.679688 "/>
<path style=" stroke:none;fill-rule:nonzero;fill:rgb(100%,100%,100%);fill-opacity:1;" d="M 90.703125 157.179688 L 104.703125 157.179688 L 104.703125 168.179688 L 90.703125 168.179688 Z M 90.703125 157.179688 "/>
<g style="fill:rgb(0%,0%,100%);fill-opacity:1;">
  <use xlink:href="#glyph0-1" x="90.703125" y="165.842773"/>
  <use xlink:href="#glyph0-2" x="97.680664" y="165.842773"/>
</g>
<path style="fill:none;stroke-width:1.2;stroke-linecap:butt;stroke-linejoin:miter;stroke:rgb(0%,0%,0%);stroke-opacity:1;stroke-miterlimit:10;" d="M 122.535156 157.867188 L 125.628906 132.761719 "/>
<path style="fill:none;stroke-width:1.2;stroke-linecap:butt;stroke-linejoin:miter;stroke:rgb(0%,0%,0%);stroke-opacity:1;stroke-miterlimit:10;" d="M 116.9375 154.628906 L 119.414062 134.546875 "/>
<path style="fill:none;stroke-width:1.2;stroke-linecap:butt;stroke-linejoin:miter;stroke:rgb(0%,0%,0%);stroke-opacity:1;stroke-miterlimit:10;" d="M 122.535156 157.867188 L 141.023438 175.125 "/>
<path style="fill:none;stroke-width:1.2;stroke-linecap:butt;stroke-linejoin:miter;stroke:rgb(0%,0%,0%);stroke-opacity:1;stroke-miterlimit:10;" d="M 125.628906 132.761719 L 114.171875 127.414062 "/>
<path style="fill:none;stroke-width:1.2;stroke-linecap:butt;stroke-linejoin:miter;stroke:rgb(0%,0%,100%);stroke-opacity:1;stroke-miterlimit:10;" d="M 114.171875 127.414062 L 102.714844 122.0625 "/>
<path style="fill:none;stroke-width:1.2;stroke-linecap:butt;stroke-linejoin:miter;stroke:rgb(0%,0%,0%);stroke-opacity:1;stroke-miterlimit:10;" d="M 125.628906 132.761719 L 147.757812 120.511719 "/>
<path style="fill:none;stroke-width:1.2;stroke-linecap:butt;stroke-linejoin:miter;stroke:rgb(0%,0%,100%);stroke-opacity:1;stroke-miterlimit:10;" d="M 102.714844 122.0625 L 94.082031 131.304688 "/>
<path style="fill:none;stroke-width:1.2;stroke-linecap:butt;stroke-linejoin:miter;stroke:rgb(0%,0%,0%);stroke-opacity:1;stroke-miterlimit:10;" d="M 94.082031 131.304688 L 85.453125 140.550781 "/>
<path style="fill:none;stroke-width:1.2;stroke-linecap:butt;stroke-linejoin:miter;stroke:rgb(0%,0%,100%);stroke-opacity:1;stroke-miterlimit:10;" d="M 105.335938 127.972656 L 98.433594 135.367188 "/>
<path style="fill:none;stroke-width:1.2;stroke-linecap:butt;stroke-linejoin:miter;stroke:rgb(0%,0%,0%);stroke-opacity:1;stroke-miterlimit:10;" d="M 98.433594 135.367188 L 91.53125 142.761719 "/>
<path style=" stroke:none;fill-rule:nonzero;fill:rgb(100%,100%,100%);fill-opacity:1;" d="M 99.714844 116.5625 L 106.714844 116.5625 L 106.714844 127.5625 L 99.714844 127.5625 Z M 99.714844 116.5625 "/>
<g style="fill:rgb(0%,0%,100%);fill-opacity:1;">
  <use xlink:href="#glyph0-1" x="99.714844" y="125.225586"/>
</g>
<path style="fill:none;stroke-width:1.2;stroke-linecap:butt;stroke-linejoin:miter;stroke:rgb(0%,0%,0%);stroke-opacity:1;stroke-miterlimit:10;" d="M 85.453125 140.550781 L 60.351562 137.457031 "/>
<path style="fill:none;stroke-width:1.2;stroke-linecap:butt;stroke-linejoin:miter;stroke:rgb(0%,0%,0%);stroke-opacity:1;stroke-miterlimit:10;" d="M 60.351562 137.457031 L 35.25 134.359375 "/>
<path style="fill:none;stroke-width:1.2;stroke-linecap:butt;stroke-linejoin:miter;stroke:rgb(0%,0%,0%);stroke-opacity:1;stroke-miterlimit:10;" d="M 60.351562 137.457031 L 63.449219 112.351562 "/>
<path style="fill:none;stroke-width:1.2;stroke-linecap:butt;stroke-linejoin:miter;stroke:rgb(0%,0%,0%);stroke-opacity:1;stroke-miterlimit:10;" d="M 60.351562 137.457031 L 57.257812 162.558594 "/>
<path style="fill:none;stroke-width:1.2;stroke-linecap:butt;stroke-linejoin:miter;stroke:rgb(0%,0%,0%);stroke-opacity:1;stroke-miterlimit:10;" d="M 147.757812 120.511719 L 158.59375 127.03125 "/>
<path style="fill:none;stroke-width:1.2;stroke-linecap:butt;stroke-linejoin:miter;stroke:rgb(0%,0%,100%);stroke-opacity:1;stroke-miterlimit:10;" d="M 158.59375 127.03125 L 169.429688 133.550781 "/>
<path style="fill:none;stroke-width:1.2;stroke-linecap:butt;stroke-linejoin:miter;stroke:rgb(0%,0%,0%);stroke-opacity:1;stroke-miterlimit:10;" d="M 152.992188 116.71875 L 161.660156 121.933594 "/>
<path style="fill:none;stroke-width:1.2;stroke-linecap:butt;stroke-linejoin:miter;stroke:rgb(0%,0%,100%);stroke-opacity:1;stroke-miterlimit:10;" d="M 161.660156 121.933594 L 170.332031 127.148438 "/>
<path style="fill:none;stroke-width:1.2;stroke-linecap:butt;stroke-linejoin:miter;stroke:rgb(0%,0%,0%);stroke-opacity:1;stroke-miterlimit:10;" d="M 148.210938 95.226562 L 147.757812 120.511719 "/>
<path style="fill:none;stroke-width:1.2;stroke-linecap:butt;stroke-linejoin:miter;stroke:rgb(0%,0%,100%);stroke-opacity:1;stroke-miterlimit:10;" d="M 169.429688 133.550781 L 180.496094 127.425781 "/>
<path style="fill:none;stroke-width:1.2;stroke-linecap:butt;stroke-linejoin:miter;stroke:rgb(0%,0%,0%);stroke-opacity:1;stroke-miterlimit:10;" d="M 180.496094 127.425781 L 191.558594 121.300781 "/>
<path style=" stroke:none;fill-rule:nonzero;fill:rgb(100%,100%,100%);fill-opacity:1;" d="M 166.429688 128.050781 L 173.429688 128.050781 L 173.429688 139.050781 L 166.429688 139.050781 Z M 166.429688 128.050781 "/>
<g style="fill:rgb(0%,0%,100%);fill-opacity:1;">
  <use xlink:href="#glyph0-1" x="166.429688" y="136.713867"/>
</g>
<path style="fill:none;stroke-width:1.2;stroke-linecap:butt;stroke-linejoin:miter;stroke:rgb(0%,0%,0%);stroke-opacity:1;stroke-miterlimit:10;" d="M 191.558594 121.300781 L 203.511719 125.425781 "/>
<path style="fill:none;stroke-width:1.2;stroke-linecap:butt;stroke-linejoin:miter;stroke:rgb(0%,0%,100%);stroke-opacity:1;stroke-miterlimit:10;" d="M 203.511719 125.425781 L 215.46875 129.546875 "/>
<path style="fill:none;stroke-width:1.2;stroke-linecap:butt;stroke-linejoin:miter;stroke:rgb(0%,0%,0%);stroke-opacity:1;stroke-miterlimit:10;" d="M 192.011719 96.011719 L 191.558594 121.300781 "/>
<path style="fill:none;stroke-width:1.2;stroke-linecap:butt;stroke-linejoin:miter;stroke:rgb(0%,0%,0%);stroke-opacity:1;stroke-miterlimit:10;" d="M 186.015625 98.433594 L 185.652344 118.664062 "/>
<path style="fill:none;stroke-width:1.2;stroke-linecap:butt;stroke-linejoin:miter;stroke:rgb(0%,0%,100%);stroke-opacity:1;stroke-miterlimit:10;" d="M 215.46875 129.546875 L 223.085938 119.453125 "/>
<path style="fill:none;stroke-width:1.2;stroke-linecap:butt;stroke-linejoin:miter;stroke:rgb(0%,0%,0%);stroke-opacity:1;stroke-miterlimit:10;" d="M 223.085938 119.453125 L 230.699219 109.355469 "/>
<path style="fill:none;stroke-width:1.2;stroke-linecap:butt;stroke-linejoin:miter;stroke:rgb(0%,0%,100%);stroke-opacity:1;stroke-miterlimit:10;" d="M 215.46875 129.546875 L 219.160156 141.644531 "/>
<path style="fill:none;stroke-width:1.2;stroke-linecap:butt;stroke-linejoin:miter;stroke:rgb(0%,0%,0%);stroke-opacity:1;stroke-miterlimit:10;" d="M 219.160156 141.644531 L 222.851562 153.738281 "/>
<path style=" stroke:none;fill-rule:nonzero;fill:rgb(100%,100%,100%);fill-opacity:1;" d="M 212.46875 124.046875 L 219.46875 124.046875 L 219.46875 135.046875 L 212.46875 135.046875 Z M 212.46875 124.046875 "/>
<g style="fill:rgb(0%,0%,100%);fill-opacity:1;">
  <use xlink:href="#glyph0-1" x="212.46875" y="132.709961"/>
</g>
<path style="fill:none;stroke-width:1.2;stroke-linecap:butt;stroke-linejoin:miter;stroke:rgb(0%,0%,0%);stroke-opacity:1;stroke-miterlimit:10;" d="M 230.699219 109.355469 L 223.453125 98.996094 "/>
<path style="fill:none;stroke-width:1.2;stroke-linecap:butt;stroke-linejoin:miter;stroke:rgb(0%,0%,100%);stroke-opacity:1;stroke-miterlimit:10;" d="M 223.453125 98.996094 L 216.203125 88.632812 "/>
<path style="fill:none;stroke-width:1.2;stroke-linecap:butt;stroke-linejoin:miter;stroke:rgb(0%,0%,0%);stroke-opacity:1;stroke-miterlimit:10;" d="M 224.375 110.695312 L 218.574219 102.40625 "/>
<path style="fill:none;stroke-width:1.2;stroke-linecap:butt;stroke-linejoin:miter;stroke:rgb(0%,0%,100%);stroke-opacity:1;stroke-miterlimit:10;" d="M 218.574219 102.40625 L 212.777344 94.113281 "/>
<path style="fill:none;stroke-width:1.2;stroke-linecap:butt;stroke-linejoin:miter;stroke:rgb(0%,0%,100%);stroke-opacity:1;stroke-miterlimit:10;" d="M 216.203125 88.632812 L 204.109375 92.320312 "/>
<path style="fill:none;stroke-width:1.2;stroke-linecap:butt;stroke-linejoin:miter;stroke:rgb(0%,0%,0%);stroke-opacity:1;stroke-miterlimit:10;" d="M 204.109375 92.320312 L 192.011719 96.011719 "/>
<path style=" stroke:none;fill-rule:nonzero;fill:rgb(100%,100%,100%);fill-opacity:1;" d="M 213.203125 83.132812 L 220.203125 83.132812 L 220.203125 94.132812 L 213.203125 94.132812 Z M 213.203125 83.132812 "/>
<g style="fill:rgb(0%,0%,100%);fill-opacity:1;">
  <use xlink:href="#glyph0-1" x="213.203125" y="91.795898"/>
</g>
<path style="fill:none;stroke-width:1.2;stroke-linecap:butt;stroke-linejoin:miter;stroke:rgb(0%,0%,0%);stroke-opacity:1;stroke-miterlimit:10;" d="M 192.011719 96.011719 L 170.339844 82.976562 "/>
<path style="fill:none;stroke-width:1.2;stroke-linecap:butt;stroke-linejoin:miter;stroke:rgb(0%,0%,0%);stroke-opacity:1;stroke-miterlimit:10;" d="M 170.339844 82.976562 L 148.210938 95.226562 "/>
<path style="fill:none;stroke-width:1.2;stroke-linecap:butt;stroke-linejoin:miter;stroke:rgb(0%,0%,0%);stroke-opacity:1;stroke-miterlimit:10;" d="M 171.011719 89.40625 L 153.308594 99.207031 "/>
<path style="fill:none;stroke-width:1.2;stroke-linecap:butt;stroke-linejoin:miter;stroke:rgb(0%,0%,0%);stroke-opacity:1;stroke-miterlimit:10;" d="M 222.851562 153.738281 L 247.492188 159.441406 "/>
<path style="fill:none;stroke-width:1.2;stroke-linecap:butt;stroke-linejoin:miter;stroke:rgb(0%,0%,0%);stroke-opacity:1;stroke-miterlimit:10;" d="M 247.492188 159.441406 L 254.871094 183.632812 "/>
<path style="fill:none;stroke-width:1.2;stroke-linecap:butt;stroke-linejoin:miter;stroke:rgb(0%,0%,0%);stroke-opacity:1;stroke-miterlimit:10;" d="M 247.492188 159.441406 L 264.75 140.953125 "/>
<path style="fill:none;stroke-width:1.2;stroke-linecap:butt;stroke-linejoin:miter;stroke:rgb(0%,0%,0%);stroke-opacity:1;stroke-miterlimit:10;" d="M 141.023438 175.125 L 135.320312 199.765625 "/>
<path style="fill:none;stroke-width:1.2;stroke-linecap:butt;stroke-linejoin:miter;stroke:rgb(0%,0%,0%);stroke-opacity:1;stroke-miterlimit:10;" d="M 146.25 178.929688 L 141.6875 198.644531 "/>
<path style="fill:none;stroke-width:1.2;stroke-linecap:butt;stroke-linejoin:miter;stroke:rgb(0%,0%,0%);stroke-opacity:1;stroke-miterlimit:10;" d="M 165.214844 167.742188 L 141.023438 175.125 "/>
<path style="fill:none;stroke-width:1.2;stroke-linecap:butt;stroke-linejoin:miter;stroke:rgb(0%,0%,0%);stroke-opacity:1;stroke-miterlimit:10;" d="M 135.320312 199.765625 L 153.808594 217.023438 "/>
<path style="fill:none;stroke-width:1.2;stroke-linecap:butt;stroke-linejoin:miter;stroke:rgb(0%,0%,0%);stroke-opacity:1;stroke-miterlimit:10;" d="M 153.808594 217.023438 L 178 209.644531 "/>
<path style="fill:none;stroke-width:1.2;stroke-linecap:butt;stroke-linejoin:miter;stroke:rgb(0%,0%,0%);stroke-opacity:1;stroke-miterlimit:10;" d="M 154.492188 210.59375 L 173.84375 204.6875 "/>
<path style="fill:none;stroke-width:1.2;stroke-linecap:butt;stroke-linejoin:miter;stroke:rgb(0%,0%,0%);stroke-opacity:1;stroke-miterlimit:10;" d="M 178 209.644531 L 183.703125 185.003906 "/>
<path style="fill:none;stroke-width:1.2;stroke-linecap:butt;stroke-linejoin:miter;stroke:rgb(0%,0%,0%);stroke-opacity:1;stroke-miterlimit:10;" d="M 183.703125 185.003906 L 165.214844 167.742188 "/>
<path style="fill:none;stroke-width:1.2;stroke-linecap:butt;stroke-linejoin:miter;stroke:rgb(0%,0%,0%);stroke-opacity:1;stroke-miterlimit:10;" d="M 177.792969 187.625 L 163 173.820312 "/>
</g>
</svg>

<svg xmlns="http://www.w3.org/2000/svg" xmlns:xlink="http://www.w3.org/1999/xlink" width="300pt" height="300pt" viewBox="0 0 300 300"><defs><symbol overflow="visible"><path d="M.453 1.594v-7.938h4.5v7.938zm.5-.5h3.5v-6.938h-3.5zm0 0"/></symbol><symbol overflow="visible" id="a"><path d="M.89-6.563H2.08l2.906 5.485v-5.484h.86V0H4.656L1.75-5.484V0H.89zm0 0"/></symbol><symbol overflow="visible" id="b"><path d="M.89-6.563h.876v2.688H5v-2.688h.89V0H5v-3.125H1.766V0H.89zm0 0"/></symbol></defs><g><path fill="#fff" d="M0 0h300v300H0z"/><path d="M97.703 162.68l12.418-2.407" stroke-width="1.2" stroke="#00f" stroke-miterlimit="10" fill="none"/><path d="M110.12 160.273l12.415-2.406M85.453 140.55l6.125 11.063" stroke-width="1.2" stroke="#000" stroke-miterlimit="10" fill="none"/><path d="M91.578 151.613l6.125 11.067" stroke-width="1.2" stroke="#00f" stroke-miterlimit="10" fill="none"/><path d="M90.703 157.18h14v11h-14zm0 0" fill="#fff"/><g fill="#00f"><use xlink:href="#a" x="90.703" y="165.843"/><use xlink:href="#b" x="97.681" y="165.843"/></g><path d="M122.535 157.867l3.094-25.105M116.938 154.63l2.476-20.083M122.535 157.867l18.488 17.258M125.63 132.762l-11.458-5.348" stroke-width="1.2" stroke="#000" stroke-miterlimit="10" fill="none"/><path d="M114.172 127.414l-11.457-5.352" stroke-width="1.2" stroke="#00f" stroke-miterlimit="10" fill="none"/><path d="M125.63 132.762l22.128-12.25" stroke-width="1.2" stroke="#000" stroke-miterlimit="10" fill="none"/><path d="M102.715 122.063l-8.633 9.242" stroke-width="1.2" stroke="#00f" stroke-miterlimit="10" fill="none"/><path d="M94.082 131.305l-8.63 9.246" stroke-width="1.2" stroke="#000" stroke-miterlimit="10" fill="none"/><path d="M105.336 127.973l-6.902 7.394" stroke-width="1.2" stroke="#00f" stroke-miterlimit="10" fill="none"/><path d="M98.434 135.367l-6.903 7.395" stroke-width="1.2" stroke="#000" stroke-miterlimit="10" fill="none"/><path d="M99.715 116.563h7v11h-7zm0 0" fill="#fff"/><use xlink:href="#a" x="99.715" y="125.226" fill="#00f"/><path d="M85.453 140.55l-25.1-3.093M60.352 137.457L35.25 134.36M60.352 137.457l3.097-25.105M60.352 137.457l-3.094 25.102M147.758 120.512l10.836 6.52" stroke-width="1.2" stroke="#000" stroke-miterlimit="10" fill="none"/><path d="M158.594 127.03l10.836 6.52" stroke-width="1.2" stroke="#00f" stroke-miterlimit="10" fill="none"/><path d="M152.992 116.72l8.668 5.214" stroke-width="1.2" stroke="#000" stroke-miterlimit="10" fill="none"/><path d="M161.66 121.934l8.672 5.214" stroke-width="1.2" stroke="#00f" stroke-miterlimit="10" fill="none"/><path d="M148.21 95.227l-.452 25.285" stroke-width="1.2" stroke="#000" stroke-miterlimit="10" fill="none"/><path d="M169.43 133.55l11.066-6.124" stroke-width="1.2" stroke="#00f" stroke-miterlimit="10" fill="none"/><path d="M180.496 127.426l11.063-6.125" stroke-width="1.2" stroke="#000" stroke-miterlimit="10" fill="none"/><path d="M166.43 128.05h7v11h-7zm0 0" fill="#fff"/><use xlink:href="#a" x="166.43" y="136.714" fill="#00f"/><path d="M191.56 121.3l11.952 4.126" stroke-width="1.2" stroke="#000" stroke-miterlimit="10" fill="none"/><path d="M203.512 125.426l11.957 4.12" stroke-width="1.2" stroke="#00f" stroke-miterlimit="10" fill="none"/><path d="M192.012 96.012l-.453 25.29M186.016 98.434l-.364 20.23" stroke-width="1.2" stroke="#000" stroke-miterlimit="10" fill="none"/><path d="M215.47 129.547l7.616-10.094" stroke-width="1.2" stroke="#00f" stroke-miterlimit="10" fill="none"/><path d="M223.086 119.453l7.613-10.098" stroke-width="1.2" stroke="#000" stroke-miterlimit="10" fill="none"/><path d="M215.47 129.547l3.69 12.098" stroke-width="1.2" stroke="#00f" stroke-miterlimit="10" fill="none"/><path d="M219.16 141.645l3.692 12.093" stroke-width="1.2" stroke="#000" stroke-miterlimit="10" fill="none"/><path d="M212.47 124.047h7v11h-7zm0 0" fill="#fff"/><use xlink:href="#a" x="212.469" y="132.71" fill="#00f"/><path d="M230.7 109.355l-7.247-10.36" stroke-width="1.2" stroke="#000" stroke-miterlimit="10" fill="none"/><path d="M223.453 98.996l-7.25-10.363" stroke-width="1.2" stroke="#00f" stroke-miterlimit="10" fill="none"/><path d="M224.375 110.695l-5.8-8.29" stroke-width="1.2" stroke="#000" stroke-miterlimit="10" fill="none"/><path d="M218.574 102.406l-5.797-8.293M216.203 88.633L204.11 92.32" stroke-width="1.2" stroke="#00f" stroke-miterlimit="10" fill="none"/><path d="M204.11 92.32l-12.098 3.692" stroke-width="1.2" stroke="#000" stroke-miterlimit="10" fill="none"/><path d="M213.203 83.133h7v11h-7zm0 0" fill="#fff"/><use xlink:href="#a" x="213.203" y="91.796" fill="#00f"/><path d="M192.012 96.012L170.34 82.977M170.34 82.977l-22.13 12.25M171.012 89.406l-17.703 9.8M222.852 153.738l24.64 5.703M247.492 159.44l7.38 24.193M247.492 159.44l17.258-18.487M141.023 175.125l-5.703 24.64M146.25 178.93l-4.563 19.715M165.215 167.742l-24.192 7.383M135.32 199.766l18.49 17.257M153.81 217.023l24.19-7.378M154.492 210.594l19.352-5.906M178 209.645l5.703-24.64M183.703 185.004l-18.488-17.262M177.793 187.625L163 173.82" stroke-width="1.2" stroke="#000" stroke-miterlimit="10" fill="none"/></g></svg>
